!!!OTL: GEGRUESST DU LAND DER TREUE
!!!ARE: Europa, Mitteleuropa, Deutschland
!!!SCT: B0006
!!!YEM: Copyright 1995, estate of Helmut Schaffrath.
**kern
*ICvox
*Ivox
*M4/4
*k[f#]
*G:
{4d
=1
4.b
8b
4b
4a
=2
4.a
8g
4g}
{4d
=3
4.cc
8cc
8.b
16a
8.b
16cc
=4
2a
4r}
{4dd
=5
4.dd
8b
4cc
4cc
=6
4.cc
8a
4b}
{4g
=7
4f#
4g
8b
8a
8g
8f#
=8
2g
4r}
==
!!!AGN: politisch, national, Vaterlands - Lied
!!!ONB: ESAC (Essen Associative Code) Database: BOEHME
!!!AMT: simple quadruple
!!!AIN: vox
!!!EED: Helmut Schaffrath
!!!EEV: 1.0
*-
